build/img/icon-wallet.svg

<svg width="24" height="24" viewBox="0 0 24 24" fill="none" xmlns="http://www.w3.org/2000/svg">
<g clip-path="url(#clip0)">
<path fill-rule="evenodd" clip-rule="evenodd" d="M4.00014 2C3.14591 2 2.4121 2.14144 1.80546 2.45598C1.181 2.77977 0.754907 3.25439 0.480717 3.80276C-0.0018958 4.76798 -0.000774871 5.97575 7.23492e-05 6.88852L0.000141729 7V19C0.000141729 20.6569 1.34329 22 3.00014 22H21.0001C22.657 22 24.0001 20.6569 24.0001 19L24.0001 16V12L24.0001 7C24.0001 6.44772 23.5524 6 23.0001 6H4.00011C3.48304 6 3.18553 5.83369 3.01974 5.6679C2.84454 5.49269 2.75014 5.25264 2.75014 5C2.75014 4.74736 2.84454 4.50731 3.01975 4.33211C3.18555 4.16631 3.48306 4 4.00014 4H4.01897H4.03796H4.05711H4.07641H4.09586H4.11548H4.13525H4.15517H4.17524H4.19547H4.21585H4.23638H4.25707H4.2779H4.29889H4.32002H4.3413H4.36273H4.3843H4.40602H4.42789H4.44991H4.47206H4.49436H4.51681H4.5394H4.56213H4.585H4.60801H4.63116H4.65445H4.67788H4.70145H4.72515H4.74899H4.77297H4.79708H4.82133H4.84572H4.87023H4.89488H4.91966H4.94457H4.96962H4.99479H5.0201H5.04553H5.07109H5.09678H5.1226H5.14854H5.17461H5.2008H5.22712H5.25357H5.28013H5.30682H5.33363H5.36056H5.38761H5.41479H5.44208H5.46949H5.49702H5.52467H5.55243H5.58031H5.6083H5.63641H5.66464H5.69298H5.72143H5.74999H5.77867H5.80745H5.83635H5.86535H5.89447H5.92369H5.95303H5.98246H6.01201H6.04166H6.07142H6.10128H6.13124H6.16131H6.19148H6.22176H6.25213H6.28261H6.31318H6.34386H6.37463H6.4055H6.43647H6.46754H6.4987H6.52996H6.56131H6.59276H6.6243H6.65594H6.68766H6.71948H6.75139H6.78339H6.81548H6.84766H6.87993H6.91228H6.94472H6.97725H7.00987H7.04257H7.07535H7.10822H7.14118H7.17421H7.20733H7.24053H7.27381H7.30717H7.34061H7.37412H7.40772H7.44139H7.47514H7.50897H7.54287H7.57685H7.6109H7.64503H7.67923H7.7135H7.74784H7.78226H7.81674H7.8513H7.88592H7.92061H7.95537H7.9902H8.0251H8.06006H8.09508H8.13017H8.16533H8.20054H8.23582H8.27117H8.30657H8.34204H8.37756H8.41315H8.44879H8.48449H8.52025H8.55607H8.59194H8.62787H8.66385H8.69989H8.73598H8.77213H8.80833H8.84458H8.88088H8.91723H8.95363H8.99008H9.02658H9.06312H9.09972H9.13636H9.17305H9.20978H9.24655H9.28338H9.32024H9.35715H9.3941H9.43109H9.46812H9.50519H9.5423H9.57945H9.61664H9.65387H9.69113H9.72843H9.76577H9.80314H9.84055H9.87799H9.91546H9.95296H9.9905H10.0281H10.0657H10.1033H10.141H10.1786H10.2164H10.2541H10.2919H10.3297H10.3675H10.4053H10.4432H10.4811H10.519H10.5569H10.5949H10.6329H10.6709H10.7089H10.7469H10.785H10.8231H10.8612H10.8993H10.9374H10.9755H11.0137H11.0519H11.09H11.1282H11.1664H11.2047H11.2429H11.2811H11.3194H11.3576H11.3959H11.4342H11.4724H11.5107H11.549H11.5873H11.6256H11.6639H11.7022H11.7405H11.7788H11.8171H11.8554H11.8938H11.9321H11.9704H12.0087H12.047H12.0853H12.1236H12.1619H12.2001H12.2384H12.2767H12.315H12.3532H12.3915H12.4297H12.4679H12.5061H12.5444H12.5825H12.6207H12.6589H12.6971H12.7352H12.7733H12.8114H12.8495H12.8876H12.9257H12.9637H13.0017H13.0397H13.0777H13.1157H13.1536H13.1915H13.2294H13.2673H13.3051H13.3429H13.3807H13.4185H13.4562H13.494H13.5317H13.5693H13.6069H13.6445H13.6821H13.7196H13.7572H13.7946H13.8321H13.8695H13.9068H13.9442H13.9815H14.0187H14.056H14.0932H14.1303H14.1674H14.2045H14.2415H14.2785H14.3155H14.3524H14.3893H14.4261H14.4629H14.4996H14.5363H14.5729H14.6095H14.6461H14.6826H14.719H14.7554H14.7918H14.8281H14.8643H14.9005H14.9367H14.9728H15.0088H15.0448H15.0807H15.1166H15.1524H15.1882H15.2239H15.2595H15.2951H15.3306H15.3661H15.4015H15.4369H15.4721H15.5074H15.5425H15.5776H15.6126H15.6476H15.6825H15.7173H15.7521H15.7868H15.8214H15.856H15.8905H15.9249H15.9592H15.9935H16.0277H16.0618H16.0959H16.1299H16.1638H16.1976H16.2314H16.265H16.2986H16.3322H16.3656H16.399H16.4322H16.4654H16.4986H16.5316H16.5646H16.5974H16.6302H16.6629H16.6955H16.7281H16.7605H16.7929H16.8251H16.8573H16.8894H16.9214H16.9533H16.9852H17.0169H17.0485H17.0801H17.1115H17.1429H17.1741H17.2053H17.2364H17.2673H17.2982H17.329H17.3597H17.3903H17.4207H17.4511H17.4814H17.5116H17.5416H17.5716H17.6015H17.6312H17.6609H17.6904H17.7199H17.7492H17.7784H17.8076H17.8366H17.8655H17.8943H17.9229H17.9515H17.98H18.0083H18.0365H18.0647H18.0927H18.1205H18.1483H18.176H18.2035H18.2309H18.2582H18.2854H18.3124H18.3394H18.3662H18.3929H18.4195H18.4459H18.4722H18.4984H18.5245H18.5504H18.5763H18.602H18.6275H18.653H18.6783H18.7034H18.7285H18.7534H18.7782H18.8029H18.8274H18.8518H18.876H18.9001H18.9241H18.948H18.9717H18.9952H19.0187H19.042H19.0651H19.0882H19.111H19.1338H19.1564H19.1788H19.2011H19.2233H19.2453H19.2672H19.2889H19.3105H19.3319H19.3532H19.3743H19.3953H19.4162H19.4368H19.4574H19.4778H19.498H19.5181H19.538H19.5578H19.5774H19.5969H19.6162H19.6353H19.6543H19.6732H19.6918H19.7104H19.7287H19.7469H19.7649H19.7828H19.8005H19.8181H19.8355H19.8527H19.8697H19.8866H19.9033H19.9199H19.9363H19.9525H19.9686H19.9844H20.0001H21.0001V2H20.0001H19.9844H19.9686H19.9525H19.9363H19.9199H19.9033H19.8866H19.8697H19.8527H19.8355H19.8181H19.8005H19.7828H19.7649H19.7469H19.7287H19.7104H19.6918H19.6732H19.6543H19.6353H19.6162H19.5969H19.5774H19.5578H19.538H19.5181H19.498H19.4778H19.4574H19.4368H19.4162H19.3953H19.3743H19.3532H19.3319H19.3105H19.2889H19.2672H19.2453H19.2233H19.2011H19.1788H19.1564H19.1338H19.111H19.0882H19.0651H19.042H19.0187H18.9952H18.9717H18.948H18.9241H18.9001H18.876H18.8518H18.8274H18.8029H18.7782H18.7534H18.7285H18.7034H18.6783H18.653H18.6275H18.602H18.5763H18.5504H18.5245H18.4984H18.4722H18.4459H18.4195H18.3929H18.3662H18.3394H18.3124H18.2854H18.2582H18.2309H18.2035H18.176H18.1483H18.1205H18.0927H18.0647H18.0365H18.0083H17.98H17.9515H17.9229H17.8943H17.8655H17.8366H17.8076H17.7784H17.7492H17.7199H17.6904H17.6609H17.6312H17.6015H17.5716H17.5416H17.5116H17.4814H17.4511H17.4207H17.3903H17.3597H17.329H17.2982H17.2673H17.2364H17.2053H17.1741H17.1429H17.1115H17.0801H17.0485H17.0169H16.9852H16.9533H16.9214H16.8894H16.8573H16.8251H16.7929H16.7605H16.7281H16.6955H16.6629H16.6302H16.5974H16.5646H16.5316H16.4986H16.4654H16.4322H16.399H16.3656H16.3322H16.2986H16.265H16.2314H16.1976H16.1638H16.1299H16.0959H16.0618H16.0277H15.9935H15.9592H15.9249H15.8905H15.856H15.8214H15.7868H15.7521H15.7173H15.6825H15.6476H15.6126H15.5776H15.5425H15.5074H15.4721H15.4369H15.4015H15.3661H15.3306H15.2951H15.2595H15.2239H15.1882H15.1524H15.1166H15.0807H15.0448H15.0088H14.9728H14.9367H14.9005H14.8643H14.8281H14.7918H14.7554H14.719H14.6826H14.6461H14.6095H14.5729H14.5363H14.4996H14.4629H14.4261H14.3893H14.3524H14.3155H14.2785H14.2415H14.2045H14.1674H14.1303H14.0932H14.056H14.0187H13.9815H13.9442H13.9068H13.8695H13.8321H13.7946H13.7572H13.7196H13.6821H13.6445H13.6069H13.5693H13.5317H13.494H13.4562H13.4185H13.3807H13.3429H13.3051H13.2673H13.2294H13.1915H13.1536H13.1157H13.0777H13.0397H13.0017H12.9637H12.9257H12.8876H12.8495H12.8114H12.7733H12.7352H12.6971H12.6589H12.6207H12.5825H12.5444H12.5061H12.4679H12.4297H12.3915H12.3532H12.315H12.2767H12.2384H12.2001H12.1619H12.1236H12.0853H12.047H12.0087H11.9704H11.9321H11.8938H11.8554H11.8171H11.7788H11.7405H11.7022H11.6639H11.6256H11.5873H11.549H11.5107H11.4724H11.4342H11.3959H11.3576H11.3194H11.2811H11.2429H11.2047H11.1664H11.1282H11.09H11.0519H11.0137H10.9755H10.9374H10.8993H10.8612H10.8231H10.785H10.7469H10.7089H10.6709H10.6329H10.5949H10.5569H10.519H10.4811H10.4432H10.4053H10.3675H10.3297H10.2919H10.2541H10.2164H10.1786H10.141H10.1033H10.0657H10.0281H9.9905H9.95296H9.91546H9.87799H9.84055H9.80314H9.76577H9.72843H9.69113H9.65387H9.61664H9.57945H9.5423H9.50519H9.46812H9.43109H9.3941H9.35715H9.32024H9.28338H9.24655H9.20978H9.17305H9.13636H9.09972H9.06312H9.02658H8.99008H8.95363H8.91723H8.88088H8.84458H8.80833H8.77213H8.73598H8.69989H8.66385H8.62787H8.59194H8.55607H8.52025H8.48449H8.44879H8.41315H8.37756H8.34204H8.30657H8.27117H8.23582H8.20054H8.16533H8.13017H8.09508H8.06006H8.0251H7.9902H7.95537H7.92061H7.88592H7.8513H7.81674H7.78226H7.74784H7.7135H7.67923H7.64503H7.6109H7.57685H7.54287H7.50897H7.47514H7.44139H7.40772H7.37412H7.34061H7.30717H7.27381H7.24053H7.20733H7.17421H7.14118H7.10822H7.07535H7.04257H7.00987H6.97725H6.94472H6.91228H6.87993H6.84766H6.81548H6.78339H6.75139H6.71948H6.68766H6.65594H6.6243H6.59276H6.56131H6.52996H6.4987H6.46754H6.43647H6.4055H6.37463H6.34386H6.31318H6.28261H6.25213H6.22176H6.19148H6.16131H6.13124H6.10128H6.07142H6.04166H6.01201H5.98246H5.95303H5.92369H5.89447H5.86535H5.83635H5.80745H5.77867H5.74999H5.72143H5.69298H5.66464H5.63641H5.6083H5.58031H5.55243H5.52467H5.49702H5.46949H5.44208H5.41479H5.38761H5.36056H5.33363H5.30682H5.28013H5.25357H5.22712H5.2008H5.17461H5.14854H5.1226H5.09678H5.07109H5.04553H5.0201H4.99479H4.96962H4.94457H4.91966H4.89488H4.87023H4.84572H4.82133H4.79708H4.77297H4.74899H4.72515H4.70145H4.67788H4.65445H4.63116H4.60801H4.585H4.56213H4.5394H4.51681H4.49436H4.47206H4.44991H4.42789H4.40602H4.3843H4.36273H4.3413H4.32002H4.29889H4.2779H4.25707H4.23638H4.21585H4.19547H4.17524H4.15517H4.13525H4.11548H4.09586H4.07641H4.05711H4.03796H4.01897H4.00014ZM22.0001 12V16H16.0001V12H22.0001ZM16.0001 10H22.0001L22.0001 8H4.00011C3.22131 8 2.54008 7.7905 2.00014 7.41289V19C2.00014 19.5523 2.44786 20 3.00014 20H21.0001C21.5524 20 22.0001 19.5523 22.0001 19L22.0001 18H16.0001C14.8956 18 14.0001 17.1046 14.0001 16V12C14.0001 10.8954 14.8956 10 16.0001 10ZM18.0001 13H17.0001V15H18.0001H19.0001H20.0001V13H19.0001H18.0001Z" fill="currentColor"/>
</g>
<defs>
<clipPath id="clip0">
<rect width="24" height="24" fill="white"/>
</clipPath>
</defs>
</svg>

<svg width="24" height="24" viewBox="0 0 24 24" fill="none" xmlns="http://www.w3.org/2000/svg"><g clip-path="url(#clip0)"><path fill-rule="evenodd" clip-rule="evenodd" d="M4 2c-.854 0-1.588.141-2.195.456A2.995 2.995 0 00.481 3.803c-.483.965-.482 2.173-.48 3.086V19a3 3 0 003 3h18a3 3 0 003-3V7a1 1 0 00-1-1H4c-.518 0-.815-.166-.981-.332A.94.94 0 012.75 5a.94.94 0 01.27-.668C3.186 4.166 3.483 4 4 4h17V2H4zm18 10v4h-6v-4h6zm-6-2h6V8H4c-.779 0-1.46-.21-2-.587V19a1 1 0 001 1h18a1 1 0 001-1v-1h-6a2 2 0 01-2-2v-4a2 2 0 012-2zm2 3h-1v2h3v-2h-2z" fill="currentColor"/></g><defs><clipPath id="clip0"><path fill="#fff" d="M0 0h24v24H0z"/></clipPath></defs></svg>
